; G-Code generated by Simplify3D(R) Version 3.1.1
; Jan 21, 2017 at 5:25:37 PM
; Settings Summary
;   processName,PETG
;   applyToModels,Split 62 bot left
;   profileName,PETG (modified)
;   profileVersion,2017-01-13 12:39:15
;   baseProfile,Duplicator_I3_60micron (modified)
;   printMaterial,ABS
;   printQuality,Medium
;   printExtruders,
;   extruderName,Extruder 1
;   extruderToolheadNumber,0
;   extruderDiameter,0.4
;   extruderAutoWidth,0
;   extruderWidth,0.4
;   extrusionMultiplier,1
;   extruderUseRetract,1
;   extruderRetractionDistance,2
;   extruderExtraRestartDistance,0
;   extruderRetractionZLift,0
;   extruderRetractionSpeed,2400
;   extruderUseCoasting,0
;   extruderCoastingDistance,0.2
;   extruderUseWipe,1
;   extruderWipeDistance,5
;   primaryExtruder,0
;   layerHeight,0.2
;   topSolidLayers,5
;   bottomSolidLayers,5
;   perimeterOutlines,3
;   printPerimetersInsideOut,1
;   startPointOption,2
;   startPointOriginX,0
;   startPointOriginY,0
;   startPointOriginZ,0
;   sequentialIslands,0
;   spiralVaseMode,0
;   firstLayerHeightPercentage,97
;   firstLayerWidthPercentage,100
;   firstLayerUnderspeed,0.5
;   useRaft,0
;   raftExtruder,0
;   raftLayers,3
;   raftOffset,3
;   raftSeparationDistance,0.14
;   raftInfill,85
;   disableRaftBaseLayers,0
;   useSkirt,1
;   skirtExtruder,0
;   skirtLayers,1
;   skirtOutlines,2
;   skirtOffset,4
;   usePrimePillar,0
;   primePillarExtruder,999
;   primePillarWidth,4
;   primePillarLocation,7
;   primePillarSpeedMultiplier,1
;   useOozeShield,0
;   oozeShieldExtruder,999
;   oozeShieldOffset,5
;   oozeShieldOutlines,1
;   oozeShieldSidewallShape,0
;   oozeShieldSidewallAngle,30
;   oozeShieldSpeedMultiplier,1
;   infillExtruder,0
;   internalInfillPattern,Fast Honeycomb
;   externalInfillPattern,Rectilinear
;   infillPercentage,10
;   outlineOverlapPercentage,20
;   infillExtrusionWidthPercentage,130
;   minInfillLength,2
;   infillLayerInterval,1
;   infillAngles,0
;   overlapInfillAngles,0
;   generateSupport,1
;   supportExtruder,0
;   supportInfillPercentage,50
;   supportExtraInflation,0
;   denseSupportLayers,0
;   denseSupportInfillPercentage,70
;   supportLayerInterval,1
;   supportHorizontalPartOffset,0.3
;   supportUpperSeparationLayers,1
;   supportLowerSeparationLayers,1
;   supportType,1
;   supportGridSpacing,2.5
;   maxOverhangAngle,50
;   supportAngles,0
;   temperatureName,Extruder 1 Temperature,Heated Bed
;   temperatureNumber,0,0
;   temperatureSetpointCount,1,2
;   temperatureSetpointLayers,1,1,1
;   temperatureSetpointTemperatures,245,80,75
;   temperatureStabilizeAtStartup,1,1
;   temperatureHeatedBed,0,1
;   temperatureRelayBetweenLayers,0,0
;   temperatureRelayBetweenLoops,0,0
;   fanLayers,1,2
;   fanSpeeds,0,100
;   blipFanToFullPower,0
;   adjustSpeedForCooling,0
;   minSpeedLayerTime,5
;   minCoolingSpeedSlowdown,20
;   increaseFanForCooling,0
;   minFanLayerTime,45
;   maxCoolingFanSpeed,100
;   increaseFanForBridging,0
;   bridgingFanSpeed,100
;   use5D,1
;   relativeEdistances,0
;   allowEaxisZeroing,1
;   independentExtruderAxes,0
;   includeM10123,0
;   stickySupport,1
;   applyToolheadOffsets,0
;   gcodeXoffset,2
;   gcodeYoffset,1
;   gcodeZoffset,0
;   overrideMachineDefinition,1
;   machineTypeOverride,0
;   strokeXoverride,199
;   strokeYoverride,200
;   strokeZoverride,187
;   originOffsetXoverride,0
;   originOffsetYoverride,0
;   originOffsetZoverride,0
;   homeXdirOverride,-1
;   homeYdirOverride,-1
;   homeZdirOverride,-1
;   flipXoverride,1
;   flipYoverride,-1
;   flipZoverride,1
;   toolheadOffsets,0,0|0,0|0,0|0,0|0,0|0,0
;   overrideFirmwareConfiguration,1
;   firmwareTypeOverride,RepRap (Marlin/Repetier/Sprinter)
;   GPXconfigOverride,r2
;   baudRateOverride,250000
;   overridePrinterModels,0
;   printerModelsOverride
;   startingGcode,G90                         ; Explicitly force absolute positioning in case it was not reset previously.,G28                         ; Home all axes.,G29                         ; Auto-level the bed.,G0 X0 Y0 Z0.15 F9000        ; Move to the front-left part of the bed.,M109 S{print_temperature}   ; Set and wait for extruder temperature.,G92 E0                      ; Zero the extruder.,G1 X40 E25 F500             ; Extrude a fat line of filament to prime and clean the nozzle.,G92 E0                      ; Zero the extruder.,G1 E-1 F500                 ; Retract 1 mm.,G1 X80 F9000                ; Sweep right to cut any strings.
;   layerChangeGcode,
;   retractionGcode,
;   toolChangeGcode,
;   endingGcode,G91,G1 Z10,G92,G1 X10,M104 S0 ; turn off extruder,M140 S0 ; turn off bed,M84 ; disable motors,M106 S0
;   exportFileFormat,gcode
;   celebration,0
;   celebrationSong,Random Song
;   postProcessing,
;   defaultSpeed,1800
;   outlineUnderspeed,0.5
;   solidInfillUnderspeed,0.75
;   supportUnderspeed,0.7
;   rapidXYspeed,4800
;   rapidZspeed,600
;   minBridgingArea,50
;   bridgingExtraInflation,0
;   bridgingExtrusionMultiplier,1
;   bridgingSpeedMultiplier,1
;   filamentDiameter,1.75
;   filamentPricePerKg,25
;   filamentDensity,1.25
;   useMinPrintHeight,0
;   minPrintHeight,0
;   useMaxPrintHeight,0
;   maxPrintHeight,0
;   useDiaphragm,0
;   diaphragmLayerInterval,20
;   robustSlicing,1
;   mergeAllIntoSolid,0
;   onlyRetractWhenCrossingOutline,0
;   retractBetweenLayers,1
;   useRetractionMinTravel,0
;   retractionMinTravel,3
;   retractWhileWiping,1
;   onlyWipeOutlines,1
;   avoidCrossingOutline,0
;   maxMovementDetourFactor,3
;   toolChangeRetractionDistance,12
;   toolChangeExtraRestartDistance,-0.5
;   toolChangeRetractionSpeed,600
;   allowThinWallGapFill,1
;   thinWallAllowedOverlapPercentage,10
;   horizontalSizeCompensation,0
G90
M82
M106 S0
M140 S80
M190 S80
M104 S245 T0
M109 S245 T0
G90                         ; Explicitly force absolute positioning in case it was not reset previously.
G28                         ; Home all axes.
G29                         ; Auto-level the bed.
G0 X0 Y0 Z0.15 F9000        ; Move to the front-left part of the bed.
M109 S{print_temperature}   ; Set and wait for extruder temperature.
G92 E0                      ; Zero the extruder.
G1 X40 E25 F500             ; Extrude a fat line of filament to prime and clean the nozzle.
G92 E0                      ; Zero the extruder.
G1 E-1 F500                 ; Retract 1 mm.
G1 X80 F9000                ; Sweep right to cut any strings.
G92 E0
G1 E-2.0000 F2400
G1 Z0.194 F600
; layer 1, Z = 0.194
T0
; tool H0.200 W0.400
; skirt
G1 X23.502 Y50.929 F4800
G1 E0.0000 F720
G92 E0
G1 X23.519 Y50.922 E0.0006 F900
G1 X23.769 Y50.827 E0.0095
G1 X23.787 Y50.821 E0.0101
G1 X24.770 Y50.516 E0.0444
G1 X24.784 Y50.512 E0.0449
G1 X24.996 Y50.458 E0.0521
G1 X25.011 Y50.454 E0.0526
G1 X149.116 Y25.387 E4.2637
G1 X149.120 Y25.386 E4.2639
G1 X149.175 Y25.375 E4.2657
G1 X149.179 Y25.375 E4.2659
G1 X150.113 Y25.211 E4.2974
G1 X150.131 Y25.209 E4.2980
G1 X150.397 Y25.179 E4.3069
G1 X150.416 Y25.178 E4.3076
G1 X151.388 Y25.130 E4.3399
G1 X151.396 Y25.130 E4.3402
G1 X151.500 Y25.127 E4.3437
G1 X151.508 Y25.127 E4.3439
G1 X183.532 Y25.126 E5.4090
G1 X183.752 Y25.218 E5.4170
G1 X186.264 Y27.730 E5.5351
G1 X186.355 Y27.950 E5.5431
G1 X186.355 Y174.050 E10.4023
G1 X186.264 Y174.270 E10.4103
G1 X183.752 Y176.782 E10.5284
G1 X183.532 Y176.874 E10.5364
G1 X45.842 Y176.874 E15.1160
G1 X45.830 Y176.873 E15.1164
G1 X45.665 Y176.867 E15.1218
G1 X45.653 Y176.866 E15.1222
G1 X44.651 Y176.789 E15.1557
G1 X44.633 Y176.787 E15.1563
G1 X44.363 Y176.749 E15.1653
G1 X44.344 Y176.746 E15.1660
G1 X43.310 Y176.533 E15.2011
G1 X43.292 Y176.528 E15.2017
G1 X43.034 Y176.458 E15.2106
G1 X43.016 Y176.453 E15.2112
G1 X42.016 Y176.113 E15.2463
G1 X41.999 Y176.106 E15.2470
G1 X41.748 Y176.003 E15.2560
G1 X41.731 Y175.995 E15.2566
G1 X40.779 Y175.531 E15.2918
G1 X40.762 Y175.522 E15.2925
G1 X40.526 Y175.387 E15.3015
G1 X40.510 Y175.377 E15.3022
G1 X39.628 Y174.799 E15.3372
G1 X39.613 Y174.789 E15.3378
G1 X39.401 Y174.630 E15.3466
G1 X39.387 Y174.619 E15.3472
G1 X38.580 Y173.934 E15.3824
G1 X38.566 Y173.922 E15.3831
G1 X38.367 Y173.730 E15.3922
G1 X38.354 Y173.716 E15.3929
G1 X37.641 Y172.935 E15.4281
G1 X37.629 Y172.920 E15.4287
G1 X37.461 Y172.711 E15.4376
G1 X37.450 Y172.696 E15.4382
G1 X36.841 Y171.834 E15.4733
G1 X36.831 Y171.818 E15.4740
G1 X36.690 Y171.589 E15.4829
G1 X36.681 Y171.573 E15.4835
G1 X36.184 Y170.641 E15.5187
G1 X36.176 Y170.624 E15.5193
G1 X36.064 Y170.377 E15.5283
G1 X36.056 Y170.359 E15.5289
G1 X35.680 Y169.370 E15.5641
G1 X35.674 Y169.352 E15.5648
G1 X35.594 Y169.094 E15.5738
G1 X35.589 Y169.075 E15.5744
G1 X35.357 Y168.114 E15.6073
G1 X35.355 Y168.105 E15.6076
G1 X35.327 Y167.972 E15.6121
G1 X35.325 Y167.963 E15.6124
G1 X16.790 Y62.847 E19.1625
G1 X16.789 Y62.838 E19.1628
G1 X16.770 Y62.703 E19.1674
G1 X16.768 Y62.693 E19.1677
G1 X16.659 Y61.712 E19.2005
G1 X16.657 Y61.694 E19.2011
G1 X16.644 Y61.426 E19.2101
G1 X16.644 Y61.407 E19.2107
G1 X16.658 Y60.349 E19.2459
G1 X16.659 Y60.330 E19.2465
G1 X16.680 Y60.056 E19.2556
G1 X16.682 Y60.037 E19.2563
G1 X16.831 Y58.992 E19.2914
G1 X16.834 Y58.974 E19.2920
G1 X16.887 Y58.714 E19.3008
G1 X16.892 Y58.696 E19.3015
G1 X17.167 Y57.678 E19.3365
G1 X17.173 Y57.661 E19.3371
G1 X17.259 Y57.406 E19.3461
G1 X17.266 Y57.388 E19.3467
G1 X17.668 Y56.408 E19.3820
G1 X17.676 Y56.390 E19.3826
G1 X17.797 Y56.142 E19.3918
G1 X17.806 Y56.125 E19.3924
G1 X18.330 Y55.206 E19.4276
G1 X18.340 Y55.190 E19.4282
G1 X18.487 Y54.966 E19.4372
G1 X18.498 Y54.950 E19.4378
G1 X19.131 Y54.105 E19.4729
G1 X19.143 Y54.090 E19.4735
G1 X19.316 Y53.886 E19.4824
G1 X19.329 Y53.872 E19.4831
G1 X20.060 Y53.114 E19.5181
G1 X20.073 Y53.101 E19.5187
G1 X20.272 Y52.919 E19.5277
G1 X20.287 Y52.907 E19.5283
G1 X21.111 Y52.243 E19.5635
G1 X21.126 Y52.231 E19.5642
G1 X21.348 Y52.075 E19.5732
G1 X21.364 Y52.064 E19.5738
G1 X22.262 Y51.512 E19.6089
G1 X22.278 Y51.502 E19.6095
G1 X22.519 Y51.374 E19.6186
G1 X22.536 Y51.366 E19.6192
G1 X23.502 Y50.929 E19.6545
G92 E0
G1 E-2.0000 F2400
G1 X23.662 Y51.296 F4800
G1 E0.0000 F2400
G92 E0
G1 X23.667 Y51.293 E0.0002 F900
G1 X23.905 Y51.203 E0.0087
G1 X23.911 Y51.201 E0.0089
G1 X24.883 Y50.899 E0.0427
G1 X24.888 Y50.898 E0.0429
G1 X25.090 Y50.846 E0.0498
G1 X25.095 Y50.845 E0.0500
G1 X149.194 Y25.779 E4.2609
G1 X149.248 Y25.769 E4.2627
G1 X150.176 Y25.606 E4.2940
G1 X150.182 Y25.606 E4.2942
G1 X150.435 Y25.577 E4.3027
G1 X150.442 Y25.577 E4.3029
G1 X151.405 Y25.530 E4.3350
G1 X151.408 Y25.530 E4.3350
G1 X151.508 Y25.527 E4.3384
G1 X151.510 Y25.527 E4.3384
G1 X183.452 Y25.526 E5.4008
G1 X183.525 Y25.557 E5.4035
G1 X185.925 Y27.956 E5.5163
G1 X185.955 Y28.030 E5.5190
G1 X185.955 Y173.970 E10.3730
G1 X185.925 Y174.044 E10.3756
G1 X183.526 Y176.443 E10.4885
G1 X183.452 Y176.474 E10.4912
G1 X45.845 Y176.474 E15.0680
G1 X45.842 Y176.474 E15.0681
G1 X45.684 Y176.467 E15.0733
G1 X45.680 Y176.467 E15.0735
G1 X44.688 Y176.391 E15.1065
G1 X44.682 Y176.390 E15.1068
G1 X44.425 Y176.354 E15.1154
G1 X44.419 Y176.353 E15.1156
G1 X43.397 Y176.142 E15.1503
G1 X43.391 Y176.141 E15.1505
G1 X43.145 Y176.074 E15.1590
G1 X43.139 Y176.072 E15.1592
G1 X42.151 Y175.736 E15.1939
G1 X42.145 Y175.734 E15.1941
G1 X41.907 Y175.635 E15.2027
G1 X41.901 Y175.633 E15.2029
G1 X40.960 Y175.174 E15.2377
G1 X40.955 Y175.171 E15.2379
G1 X40.729 Y175.043 E15.2466
G1 X40.724 Y175.039 E15.2468
G1 X39.853 Y174.468 E15.2814
G1 X39.848 Y174.465 E15.2816
G1 X39.646 Y174.314 E15.2900
G1 X39.641 Y174.310 E15.2902
G1 X38.844 Y173.634 E15.3250
G1 X38.839 Y173.629 E15.3252
G1 X38.650 Y173.447 E15.3339
G1 X38.645 Y173.442 E15.3342
G1 X37.941 Y172.670 E15.3689
G1 X37.937 Y172.665 E15.3691
G1 X37.777 Y172.465 E15.3776
G1 X37.773 Y172.460 E15.3778
G1 X37.172 Y171.608 E15.4125
G1 X37.168 Y171.603 E15.4127
G1 X37.034 Y171.385 E15.4213
G1 X37.031 Y171.379 E15.4215
G1 X36.540 Y170.458 E15.4562
G1 X36.537 Y170.452 E15.4564
G1 X36.431 Y170.217 E15.4650
G1 X36.428 Y170.211 E15.4652
G1 X36.057 Y169.234 E15.5000
G1 X36.055 Y169.228 E15.5002
G1 X35.978 Y168.981 E15.5088
G1 X35.977 Y168.975 E15.5090
G1 X35.746 Y168.023 E15.5416
G1 X35.745 Y168.020 E15.5417
G1 X35.719 Y167.894 E15.5460
G1 X35.718 Y167.891 E15.5461
G1 X17.185 Y62.781 E19.0960
G1 X17.184 Y62.778 E19.0961
G1 X17.166 Y62.649 E19.1004
G1 X17.166 Y62.646 E19.1005
G1 X17.057 Y61.674 E19.1330
G1 X17.057 Y61.668 E19.1332
G1 X17.044 Y61.413 E19.1417
G1 X17.044 Y61.407 E19.1419
G1 X17.058 Y60.361 E19.1767
G1 X17.058 Y60.354 E19.1769
G1 X17.079 Y60.094 E19.1856
G1 X17.079 Y60.087 E19.1858
G1 X17.226 Y59.055 E19.2205
G1 X17.227 Y59.049 E19.2207
G1 X17.278 Y58.800 E19.2292
G1 X17.279 Y58.794 E19.2294
G1 X17.552 Y57.789 E19.2640
G1 X17.553 Y57.783 E19.2642
G1 X17.636 Y57.540 E19.2728
G1 X17.638 Y57.534 E19.2730
G1 X18.036 Y56.566 E19.3078
G1 X18.038 Y56.560 E19.3080
G1 X18.154 Y56.323 E19.3168
G1 X18.157 Y56.318 E19.3170
G1 X18.675 Y55.409 E19.3517
G1 X18.678 Y55.404 E19.3520
G1 X18.818 Y55.190 E19.3605
G1 X18.822 Y55.185 E19.3607
G1 X19.447 Y54.350 E19.3954
G1 X19.451 Y54.345 E19.3956
G1 X19.617 Y54.150 E19.4041
G1 X19.621 Y54.146 E19.4043
G1 X20.343 Y53.396 E19.4389
G1 X20.348 Y53.392 E19.4391
G1 X20.538 Y53.219 E19.4477
G1 X20.543 Y53.214 E19.4479
G1 X21.357 Y52.558 E19.4827
G1 X21.362 Y52.554 E19.4829
G1 X21.574 Y52.405 E19.4915
G1 X21.579 Y52.402 E19.4917
G1 X22.466 Y51.856 E19.5263
G1 X22.471 Y51.853 E19.5265
G1 X22.701 Y51.730 E19.5352
G1 X22.707 Y51.728 E19.5354
G1 X23.662 Y51.296 E19.5703
G92 E0
G1 E-2.0000 F2400
; inner perimeter
G1 X25.633 Y56.111 F4800
G1 E0.0000 F2400
G92 E0
G1 X26.276 Y55.912 E0.0224 F750
G1 X150.185 Y30.884 E4.2268
G1 X150.885 Y30.761 E4.2505
G1 X151.584 Y30.727 E4.2738
G1 X180.755 Y30.726 E5.2440
G1 X180.755 Y171.274 E9.9186
G1 X45.963 Y171.274 E14.4019
G1 X45.280 Y171.221 E14.4246
G1 X44.634 Y171.088 E14.4466
G1 X44.008 Y170.875 E14.4686
G1 X43.414 Y170.585 E14.4905
G1 X42.861 Y170.223 E14.5125
G1 X42.356 Y169.794 E14.5346
G1 X41.912 Y169.307 E14.5565
G1 X41.531 Y168.767 E14.5785
G1 X41.220 Y168.184 E14.6004
G1 X40.986 Y167.566 E14.6224
G1 X40.823 Y166.893 E14.6454
G1 X22.323 Y61.973 E18.1889
G1 X22.246 Y61.287 E18.2119
G1 X22.255 Y60.625 E18.2339
G1 X22.348 Y59.972 E18.2559
G1 X22.521 Y59.333 E18.2779
G1 X22.771 Y58.723 E18.2998
G1 X23.098 Y58.150 E18.3218
G1 X23.496 Y57.619 E18.3438
G1 X23.954 Y57.144 E18.3658
G1 X24.469 Y56.729 E18.3878
G1 X25.027 Y56.385 E18.4096
G1 X25.633 Y56.111 E18.4317
G92 E0
G1 E-2.0000 F2400
; inner perimeter
G1 X25.491 Y55.737 F4800
G1 E0.0000 F2400
G92 E0
G1 X26.177 Y55.524 E0.0239 F600
G1 X150.111 Y30.491 E4.2292
G1 X150.840 Y30.363 E4.2538
G1 X151.575 Y30.327 E4.2783
G1 X181.155 Y30.326 E5.2622
G1 X181.155 Y171.674 E9.9634
G1 X45.947 Y171.674 E14.4604
G1 X45.224 Y171.618 E14.4845
G1 X44.528 Y171.474 E14.5082
G1 X43.855 Y171.245 E14.5318
G1 X43.216 Y170.933 E14.5555
G1 X42.621 Y170.544 E14.5791
G1 X42.078 Y170.083 E14.6028
G1 X41.600 Y169.559 E14.6264
G1 X41.190 Y168.977 E14.6501
G1 X40.855 Y168.349 E14.6737
G1 X40.603 Y167.684 E14.6974
G1 X40.431 Y166.975 E14.7217
G1 X21.927 Y62.030 E18.2660
G1 X21.846 Y61.306 E18.2902
G1 X21.855 Y60.594 E18.3139
G1 X21.955 Y59.891 E18.3375
G1 X22.141 Y59.204 E18.3612
G1 X22.411 Y58.547 E18.3848
G1 X22.763 Y57.930 E18.4085
G1 X23.191 Y57.359 E18.4322
G1 X23.683 Y56.848 E18.4558
G1 X24.238 Y56.401 E18.4795
G1 X24.839 Y56.031 E18.5029
G1 X25.491 Y55.737 E18.5267
G92 E0
G1 E-2.0000 F2400
; outer perimeter
G1 X25.348 Y55.362 F4800
G1 E0.0000 F2400
G92 E0
G1 X26.078 Y55.135 E0.0254 F450
G1 X150.036 Y30.098 E4.2315
G1 X150.796 Y29.965 E4.2572
G1 X151.565 Y29.927 E4.2828
G1 X181.555 Y29.926 E5.2803
G1 X181.555 Y172.074 E10.0081
G1 X45.932 Y172.074 E14.5190
G1 X45.168 Y172.015 E14.5445
G1 X44.423 Y171.861 E14.5698
G1 X43.703 Y171.616 E14.5951
G1 X43.018 Y171.282 E14.6204
G1 X42.381 Y170.864 E14.6457
G1 X41.800 Y170.371 E14.6711
G1 X41.287 Y169.809 E14.6964
G1 X40.848 Y169.187 E14.7217
G1 X40.491 Y168.515 E14.7470
G1 X40.220 Y167.803 E14.7724
G1 X40.039 Y167.057 E14.7979
G1 X21.530 Y62.087 E18.3431
G1 X21.446 Y61.326 E18.3686
G1 X21.456 Y60.563 E18.3939
G1 X21.563 Y59.810 E18.4192
