; G-Code generated by Simplify3D(R) Version 3.1.1
; Jan 21, 2017 at 5:26:16 PM
; Settings Summary
;   processName,PETG
;   applyToModels,Split 62 bot right
;   profileName,PETG (modified)
;   profileVersion,2017-01-13 12:39:15
;   baseProfile,Duplicator_I3_60micron (modified)
;   printMaterial,ABS
;   printQuality,Medium
;   printExtruders,
;   extruderName,Extruder 1
;   extruderToolheadNumber,0
;   extruderDiameter,0.4
;   extruderAutoWidth,0
;   extruderWidth,0.4
;   extrusionMultiplier,1
;   extruderUseRetract,1
;   extruderRetractionDistance,2
;   extruderExtraRestartDistance,0
;   extruderRetractionZLift,0
;   extruderRetractionSpeed,2400
;   extruderUseCoasting,0
;   extruderCoastingDistance,0.2
;   extruderUseWipe,1
;   extruderWipeDistance,5
;   primaryExtruder,0
;   layerHeight,0.2
;   topSolidLayers,5
;   bottomSolidLayers,5
;   perimeterOutlines,3
;   printPerimetersInsideOut,1
;   startPointOption,2
;   startPointOriginX,0
;   startPointOriginY,0
;   startPointOriginZ,0
;   sequentialIslands,0
;   spiralVaseMode,0
;   firstLayerHeightPercentage,97
;   firstLayerWidthPercentage,100
;   firstLayerUnderspeed,0.5
;   useRaft,0
;   raftExtruder,0
;   raftLayers,3
;   raftOffset,3
;   raftSeparationDistance,0.14
;   raftInfill,85
;   disableRaftBaseLayers,0
;   useSkirt,1
;   skirtExtruder,0
;   skirtLayers,1
;   skirtOutlines,2
;   skirtOffset,4
;   usePrimePillar,0
;   primePillarExtruder,999
;   primePillarWidth,4
;   primePillarLocation,7
;   primePillarSpeedMultiplier,1
;   useOozeShield,0
;   oozeShieldExtruder,999
;   oozeShieldOffset,5
;   oozeShieldOutlines,1
;   oozeShieldSidewallShape,0
;   oozeShieldSidewallAngle,30
;   oozeShieldSpeedMultiplier,1
;   infillExtruder,0
;   internalInfillPattern,Fast Honeycomb
;   externalInfillPattern,Rectilinear
;   infillPercentage,10
;   outlineOverlapPercentage,20
;   infillExtrusionWidthPercentage,130
;   minInfillLength,2
;   infillLayerInterval,1
;   infillAngles,0
;   overlapInfillAngles,0
;   generateSupport,1
;   supportExtruder,0
;   supportInfillPercentage,50
;   supportExtraInflation,0
;   denseSupportLayers,0
;   denseSupportInfillPercentage,70
;   supportLayerInterval,1
;   supportHorizontalPartOffset,0.3
;   supportUpperSeparationLayers,1
;   supportLowerSeparationLayers,1
;   supportType,1
;   supportGridSpacing,2.5
;   maxOverhangAngle,50
;   supportAngles,0
;   temperatureName,Extruder 1 Temperature,Heated Bed
;   temperatureNumber,0,0
;   temperatureSetpointCount,1,2
;   temperatureSetpointLayers,1,1,1
;   temperatureSetpointTemperatures,245,80,75
;   temperatureStabilizeAtStartup,1,1
;   temperatureHeatedBed,0,1
;   temperatureRelayBetweenLayers,0,0
;   temperatureRelayBetweenLoops,0,0
;   fanLayers,1,2
;   fanSpeeds,0,100
;   blipFanToFullPower,0
;   adjustSpeedForCooling,0
;   minSpeedLayerTime,5
;   minCoolingSpeedSlowdown,20
;   increaseFanForCooling,0
;   minFanLayerTime,45
;   maxCoolingFanSpeed,100
;   increaseFanForBridging,0
;   bridgingFanSpeed,100
;   use5D,1
;   relativeEdistances,0
;   allowEaxisZeroing,1
;   independentExtruderAxes,0
;   includeM10123,0
;   stickySupport,1
;   applyToolheadOffsets,0
;   gcodeXoffset,2
;   gcodeYoffset,1
;   gcodeZoffset,0
;   overrideMachineDefinition,1
;   machineTypeOverride,0
;   strokeXoverride,199
;   strokeYoverride,200
;   strokeZoverride,187
;   originOffsetXoverride,0
;   originOffsetYoverride,0
;   originOffsetZoverride,0
;   homeXdirOverride,-1
;   homeYdirOverride,-1
;   homeZdirOverride,-1
;   flipXoverride,1
;   flipYoverride,-1
;   flipZoverride,1
;   toolheadOffsets,0,0|0,0|0,0|0,0|0,0|0,0
;   overrideFirmwareConfiguration,1
;   firmwareTypeOverride,RepRap (Marlin/Repetier/Sprinter)
;   GPXconfigOverride,r2
;   baudRateOverride,250000
;   overridePrinterModels,0
;   printerModelsOverride
;   startingGcode,G90                         ; Explicitly force absolute positioning in case it was not reset previously.,G28                         ; Home all axes.,G29                         ; Auto-level the bed.,G0 X0 Y0 Z0.15 F9000        ; Move to the front-left part of the bed.,M109 S{print_temperature}   ; Set and wait for extruder temperature.,G92 E0                      ; Zero the extruder.,G1 X40 E25 F500             ; Extrude a fat line of filament to prime and clean the nozzle.,G92 E0                      ; Zero the extruder.,G1 E-1 F500                 ; Retract 1 mm.,G1 X80 F9000                ; Sweep right to cut any strings.
;   layerChangeGcode,
;   retractionGcode,
;   toolChangeGcode,
;   endingGcode,G91,G1 Z10,G92,G1 X10,M104 S0 ; turn off extruder,M140 S0 ; turn off bed,M84 ; disable motors,M106 S0
;   exportFileFormat,gcode
;   celebration,0
;   celebrationSong,Random Song
;   postProcessing,
;   defaultSpeed,1800
;   outlineUnderspeed,0.5
;   solidInfillUnderspeed,0.75
;   supportUnderspeed,0.7
;   rapidXYspeed,4800
;   rapidZspeed,600
;   minBridgingArea,50
;   bridgingExtraInflation,0
;   bridgingExtrusionMultiplier,1
;   bridgingSpeedMultiplier,1
;   filamentDiameter,1.75
;   filamentPricePerKg,25
;   filamentDensity,1.25
;   useMinPrintHeight,0
;   minPrintHeight,0
;   useMaxPrintHeight,0
;   maxPrintHeight,0
;   useDiaphragm,0
;   diaphragmLayerInterval,20
;   robustSlicing,1
;   mergeAllIntoSolid,0
;   onlyRetractWhenCrossingOutline,0
;   retractBetweenLayers,1
;   useRetractionMinTravel,0
;   retractionMinTravel,3
;   retractWhileWiping,1
;   onlyWipeOutlines,1
;   avoidCrossingOutline,0
;   maxMovementDetourFactor,3
;   toolChangeRetractionDistance,12
;   toolChangeExtraRestartDistance,-0.5
;   toolChangeRetractionSpeed,600
;   allowThinWallGapFill,1
;   thinWallAllowedOverlapPercentage,10
;   horizontalSizeCompensation,0
G90
M82
M106 S0
M140 S80
M190 S80
M104 S245 T0
M109 S245 T0
G90                         ; Explicitly force absolute positioning in case it was not reset previously.
G28                         ; Home all axes.
G29                         ; Auto-level the bed.
G0 X0 Y0 Z0.15 F9000        ; Move to the front-left part of the bed.
M109 S{print_temperature}   ; Set and wait for extruder temperature.
G92 E0                      ; Zero the extruder.
G1 X40 E25 F500             ; Extrude a fat line of filament to prime and clean the nozzle.
G92 E0                      ; Zero the extruder.
G1 E-1 F500                 ; Retract 1 mm.
G1 X80 F9000                ; Sweep right to cut any strings.
G92 E0
G1 E-2.0000 F2400
G1 Z0.194 F600
; layer 1, Z = 0.194
T0
; tool H0.200 W0.400
; skirt
G1 X19.248 Y25.218 F4800
G1 E0.0000 F720
G92 E0
G1 X19.468 Y25.126 E0.0079 F900
G1 X51.491 Y25.127 E1.0730
G1 X51.498 Y25.127 E1.0733
G1 X51.601 Y25.130 E1.0767
G1 X51.608 Y25.130 E1.0769
G1 X52.582 Y25.177 E1.1093
G1 X52.600 Y25.178 E1.1100
G1 X52.871 Y25.208 E1.1190
G1 X52.889 Y25.211 E1.1196
G1 X53.824 Y25.375 E1.1512
G1 X53.828 Y25.376 E1.1513
G1 X53.881 Y25.386 E1.1531
G1 X53.885 Y25.387 E1.1533
G1 X177.989 Y50.454 E5.3643
G1 X178.004 Y50.458 E5.3648
G1 X178.216 Y50.512 E5.3721
G1 X178.230 Y50.516 E5.3726
G1 X179.213 Y50.820 E5.4068
G1 X179.230 Y50.826 E5.4074
G1 X179.478 Y50.921 E5.4163
G1 X179.495 Y50.928 E5.4169
G1 X180.458 Y51.363 E5.4520
G1 X180.476 Y51.371 E5.4527
G1 X180.719 Y51.500 E5.4618
G1 X180.736 Y51.510 E5.4625
G1 X181.636 Y52.065 E5.4977
G1 X181.652 Y52.075 E5.4983
G1 X181.870 Y52.229 E5.5072
G1 X181.885 Y52.240 E5.5078
G1 X182.709 Y52.902 E5.5429
G1 X182.724 Y52.915 E5.5436
G1 X182.926 Y53.100 E5.5527
G1 X182.940 Y53.113 E5.5533
G1 X183.674 Y53.875 E5.5885
G1 X183.687 Y53.889 E5.5891
G1 X183.860 Y54.093 E5.5981
G1 X183.872 Y54.108 E5.5987
G1 X184.504 Y54.952 E5.6338
G1 X184.514 Y54.968 E5.6344
G1 X184.660 Y55.190 E5.6432
G1 X184.670 Y55.206 E5.6439
G1 X185.194 Y56.125 E5.6790
G1 X185.203 Y56.142 E5.6797
G1 X185.324 Y56.390 E5.6889
G1 X185.332 Y56.408 E5.6895
G1 X185.734 Y57.388 E5.7247
G1 X185.741 Y57.405 E5.7254
G1 X185.827 Y57.659 E5.7343
G1 X185.832 Y57.677 E5.7349
G1 X186.108 Y58.694 E5.7699
G1 X186.113 Y58.712 E5.7706
G1 X186.167 Y58.977 E5.7795
G1 X186.170 Y58.995 E5.7802
G1 X186.317 Y60.040 E5.8153
G1 X186.319 Y60.059 E5.8159
G1 X186.340 Y60.325 E5.8248
G1 X186.341 Y60.344 E5.8254
G1 X186.357 Y61.400 E5.8605
G1 X186.357 Y61.420 E5.8612
G1 X186.343 Y61.693 E5.8703
G1 X186.342 Y61.712 E5.8709
G1 X186.231 Y62.697 E5.9039
G1 X186.230 Y62.706 E5.9042
G1 X186.211 Y62.839 E5.9087
G1 X186.209 Y62.848 E5.9090
G1 X167.675 Y167.963 E9.4590
G1 X167.673 Y167.972 E9.4594
G1 X167.645 Y168.105 E9.4638
G1 X167.643 Y168.114 E9.4642
G1 X167.411 Y169.075 E9.4971
G1 X167.406 Y169.094 E9.4977
G1 X167.326 Y169.352 E9.5067
G1 X167.320 Y169.370 E9.5073
G1 X166.944 Y170.359 E9.5425
G1 X166.936 Y170.377 E9.5431
G1 X166.824 Y170.624 E9.5522
G1 X166.816 Y170.641 E9.5528
G1 X166.319 Y171.573 E9.5879
G1 X166.310 Y171.589 E9.5886
G1 X166.169 Y171.818 E9.5975
G1 X166.159 Y171.834 E9.5981
G1 X165.550 Y172.697 E9.6332
G1 X165.539 Y172.712 E9.6339
G1 X165.370 Y172.922 E9.6428
G1 X165.358 Y172.936 E9.6435
G1 X164.645 Y173.717 E9.6786
G1 X164.632 Y173.731 E9.6793
G1 X164.434 Y173.921 E9.6884
G1 X164.420 Y173.934 E9.6890
G1 X163.614 Y174.618 E9.7242
G1 X163.600 Y174.629 E9.7248
G1 X163.387 Y174.788 E9.7336
G1 X163.372 Y174.799 E9.7342
G1 X162.490 Y175.377 E9.7693
G1 X162.474 Y175.387 E9.7699
G1 X162.238 Y175.522 E9.7790
G1 X162.221 Y175.531 E9.7796
G1 X161.269 Y175.995 E9.8148
G1 X161.252 Y176.003 E9.8155
G1 X161.002 Y176.106 E9.8244
G1 X160.985 Y176.112 E9.8251
G1 X159.986 Y176.452 E9.8602
G1 X159.968 Y176.458 E9.8608
G1 X159.709 Y176.528 E9.8697
G1 X159.690 Y176.533 E9.8704
G1 X158.655 Y176.746 E9.9055
G1 X158.636 Y176.749 E9.9061
G1 X158.367 Y176.787 E9.9152
G1 X158.348 Y176.789 E9.9158
G1 X157.347 Y176.866 E9.9492
G1 X157.335 Y176.867 E9.9496
G1 X157.170 Y176.873 E9.9551
G1 X157.158 Y176.874 E9.9555
G1 X19.468 Y176.874 E14.5351
G1 X19.248 Y176.782 E14.5430
G1 X16.736 Y174.270 E14.6612
G1 X16.645 Y174.050 E14.6691
G1 X16.645 Y27.950 E19.5284
G1 X16.736 Y27.730 E19.5363
G1 X19.248 Y25.218 E19.6545
G92 E0
G1 E-2.0000 F2400
G1 X19.475 Y25.557 F4800
G1 E0.0000 F2400
G92 E0
G1 X19.548 Y25.526 E0.0026 F900
G1 X51.489 Y25.527 E1.0650
G1 X51.491 Y25.527 E1.0651
G1 X51.589 Y25.530 E1.0683
G1 X51.591 Y25.530 E1.0684
G1 X52.556 Y25.576 E1.1005
G1 X52.562 Y25.576 E1.1007
G1 X52.820 Y25.605 E1.1094
G1 X52.826 Y25.606 E1.1096
G1 X53.754 Y25.769 E1.1409
G1 X53.806 Y25.779 E1.1426
G1 X177.905 Y50.845 E5.3535
G1 X177.910 Y50.846 E5.3537
G1 X178.112 Y50.898 E5.3606
G1 X178.117 Y50.899 E5.3608
G1 X179.088 Y51.201 E5.3946
G1 X179.094 Y51.203 E5.3948
G1 X179.331 Y51.292 E5.4032
G1 X179.336 Y51.295 E5.4034
G1 X180.288 Y51.724 E5.4381
G1 X180.294 Y51.727 E5.4384
G1 X180.526 Y51.851 E5.4471
G1 X180.531 Y51.854 E5.4473
G1 X181.421 Y52.402 E5.4821
G1 X181.426 Y52.406 E5.4823
G1 X181.634 Y52.552 E5.4908
G1 X181.639 Y52.556 E5.4910
G1 X182.454 Y53.210 E5.5257
G1 X182.459 Y53.215 E5.5259
G1 X182.652 Y53.391 E5.5346
G1 X182.656 Y53.395 E5.5348
G1 X183.382 Y54.148 E5.5696
G1 X183.386 Y54.153 E5.5698
G1 X183.552 Y54.348 E5.5783
G1 X183.556 Y54.353 E5.5785
G1 X184.179 Y55.187 E5.6132
G1 X184.183 Y55.192 E5.6134
G1 X184.322 Y55.404 E5.6218
G1 X184.325 Y55.410 E5.6220
G1 X184.843 Y56.318 E5.6568
G1 X184.846 Y56.323 E5.6570
G1 X184.962 Y56.560 E5.6658
G1 X184.964 Y56.566 E5.6660
G1 X185.362 Y57.534 E5.7008
G1 X185.364 Y57.540 E5.7010
G1 X185.446 Y57.782 E5.7095
G1 X185.448 Y57.788 E5.7097
G1 X185.721 Y58.793 E5.7443
G1 X185.722 Y58.799 E5.7446
G1 X185.774 Y59.051 E5.7531
G1 X185.775 Y59.057 E5.7533
G1 X185.920 Y60.090 E5.7880
G1 X185.921 Y60.096 E5.7882
G1 X185.940 Y60.350 E5.7967
G1 X185.941 Y60.356 E5.7969
G1 X185.957 Y61.400 E5.8316
G1 X185.957 Y61.407 E5.8318
G1 X185.944 Y61.668 E5.8405
G1 X185.944 Y61.674 E5.8407
G1 X185.834 Y62.649 E5.8734
G1 X185.834 Y62.652 E5.8735
G1 X185.815 Y62.779 E5.8777
G1 X185.815 Y62.782 E5.8778
G1 X167.282 Y167.891 E9.4277
G1 X167.281 Y167.894 E9.4278
G1 X167.255 Y168.020 E9.4321
G1 X167.254 Y168.023 E9.4322
G1 X167.023 Y168.975 E9.4648
G1 X167.022 Y168.981 E9.4650
G1 X166.945 Y169.228 E9.4736
G1 X166.943 Y169.234 E9.4738
G1 X166.572 Y170.211 E9.5086
G1 X166.569 Y170.217 E9.5088
G1 X166.463 Y170.452 E9.5174
G1 X166.460 Y170.458 E9.5176
G1 X165.969 Y171.379 E9.5523
G1 X165.966 Y171.385 E9.5525
G1 X165.832 Y171.603 E9.5610
G1 X165.828 Y171.608 E9.5612
G1 X165.227 Y172.461 E9.5959
G1 X165.223 Y172.466 E9.5961
G1 X165.062 Y172.666 E9.6047
G1 X165.058 Y172.671 E9.6049
G1 X164.354 Y173.443 E9.6397
G1 X164.349 Y173.447 E9.6399
G1 X164.161 Y173.629 E9.6486
G1 X164.157 Y173.633 E9.6488
G1 X163.360 Y174.309 E9.6835
G1 X163.355 Y174.313 E9.6837
G1 X163.153 Y174.464 E9.6921
G1 X163.148 Y174.468 E9.6923
G1 X162.276 Y175.039 E9.7270
G1 X162.271 Y175.043 E9.7272
G1 X162.045 Y175.171 E9.7358
G1 X162.040 Y175.174 E9.7360
G1 X161.099 Y175.633 E9.7708
G1 X161.094 Y175.635 E9.7710
G1 X160.856 Y175.733 E9.7796
G1 X160.850 Y175.736 E9.7798
G1 X159.863 Y176.072 E9.8145
G1 X159.857 Y176.073 E9.8147
G1 X159.609 Y176.141 E9.8232
G1 X159.603 Y176.142 E9.8234
G1 X158.580 Y176.353 E9.8582
G1 X158.574 Y176.354 E9.8584
G1 X158.318 Y176.390 E9.8670
G1 X158.311 Y176.391 E9.8672
G1 X157.320 Y176.467 E9.9003
G1 X157.316 Y176.467 E9.9004
G1 X157.158 Y176.474 E9.9057
G1 X157.155 Y176.474 E9.9058
G1 X19.548 Y176.474 E14.4826
G1 X19.474 Y176.443 E14.4853
G1 X17.075 Y174.044 E14.5981
G1 X17.045 Y173.970 E14.6008
G1 X17.045 Y28.030 E19.4548
G1 X17.075 Y27.956 E19.4574
G1 X19.475 Y25.557 E19.5703
G92 E0
G1 E-2.0000 F2400
; inner perimeter
G1 X22.245 Y30.726 F4800
G1 E0.0000 F2400
G92 E0
G1 X51.416 Y30.727 E0.9702 F750
G1 X52.115 Y30.761 E0.9935
G1 X52.815 Y30.884 E1.0172
G1 X176.724 Y55.912 E5.2216
G1 X177.368 Y56.111 E5.2440
G1 X177.969 Y56.383 E5.2660
G1 X178.531 Y56.730 E5.2880
G1 X179.047 Y57.143 E5.3099
G1 X179.505 Y57.619 E5.3319
G1 X179.902 Y58.149 E5.3539
G1 X180.229 Y58.723 E5.3759
G1 X180.479 Y59.333 E5.3978
G1 X180.652 Y59.970 E5.4198
G1 X180.744 Y60.626 E5.4418
G1 X180.755 Y61.286 E5.4638
G1 X180.677 Y61.973 E5.4868
G1 X162.177 Y166.893 E9.0303
G1 X162.014 Y167.566 E9.0533
G1 X161.780 Y168.184 E9.0753
G1 X161.469 Y168.767 E9.0972
G1 X161.088 Y169.307 E9.1192
G1 X160.643 Y169.794 E9.1412
G1 X160.139 Y170.223 E9.1632
G1 X159.586 Y170.585 E9.1852
G1 X158.992 Y170.875 E9.2071
G1 X158.367 Y171.088 E9.2291
G1 X157.720 Y171.221 E9.2511
G1 X157.037 Y171.274 E9.2738
G1 X22.245 Y171.274 E13.7571
G1 X22.245 Y30.726 E18.4317
G92 E0
G1 E-2.0000 F2400
; inner perimeter
G1 X21.845 Y30.326 F4800
G1 E0.0000 F2400
G92 E0
G1 X51.426 Y30.327 E0.9839 F600
G1 X52.160 Y30.362 E1.0083
G1 X52.889 Y30.491 E1.0329
G1 X176.823 Y55.524 E5.2382
G1 X177.510 Y55.737 E5.2622
G1 X178.157 Y56.029 E5.2858
G1 X178.762 Y56.402 E5.3094
G1 X179.317 Y56.847 E5.3331
G1 X179.810 Y57.359 E5.3567
G1 X180.237 Y57.930 E5.3804
G1 X180.589 Y58.547 E5.4041
G1 X180.859 Y59.205 E5.4277
G1 X181.045 Y59.890 E5.4513
G1 X181.144 Y60.595 E5.4750
G1 X181.155 Y61.306 E5.4986
G1 X181.073 Y62.030 E5.5229
G1 X162.569 Y166.975 E9.0672
G1 X162.397 Y167.684 E9.0915
G1 X162.144 Y168.349 E9.1152
G1 X161.810 Y168.977 E9.1388
G1 X161.400 Y169.558 E9.1625
G1 X160.922 Y170.083 E9.1861
G1 X160.379 Y170.544 E9.2098
G1 X159.784 Y170.933 E9.2334
G1 X159.145 Y171.245 E9.2571
G1 X158.472 Y171.474 E9.2807
G1 X157.776 Y171.618 E9.3044
G1 X157.053 Y171.674 E9.3285
G1 X21.845 Y171.674 E13.8255
G1 X21.845 Y30.326 E18.5267
G92 E0
G1 E-2.0000 F2400
; outer perimeter
G1 X21.445 Y29.926 F4800
G1 E0.0000 F2400
G92 E0
G1 X51.435 Y29.927 E0.9975 F450
G1 X52.204 Y29.964 E1.0231
G1 X52.963 Y30.098 E1.0487
G1 X176.922 Y55.135 E5.2549
G1 X177.652 Y55.362 E5.2803
G1 X178.345 Y55.675 E5.3056
G1 X178.994 Y56.075 E5.3309
G1 X179.587 Y56.552 E5.3563
G1 X180.116 Y57.100 E5.3816
G1 X180.572 Y57.710 E5.4069
G1 X180.949 Y58.371 E5.4322
G1 X181.238 Y59.076 E5.4576
G1 X181.437 Y59.809 E5.4829
G1 X181.543 Y60.564 E5.5082
G1 X181.555 Y61.325 E5.5335
G1 X181.469 Y62.087 E5.5590
G1 X162.961 Y167.057 E9.1042
G1 X162.780 Y167.803 E9.1297
G1 X162.509 Y168.515 E9.1551
G1 X162.152 Y169.187 E9.1804
G1 X161.713 Y169.809 E9.2057
G1 X161.200 Y170.371 E9.2310
G1 X160.619 Y170.865 E9.2564
