; G-Code generated by Simplify3D(R) Version 3.1.1
; Jan 21, 2017 at 5:29:06 PM
; Settings Summary
;   processName,PETG
;   applyToModels,Split 62 top left
;   profileName,PETG (modified)
;   profileVersion,2017-01-13 12:39:15
;   baseProfile,Duplicator_I3_60micron (modified)
;   printMaterial,ABS
;   printQuality,Medium
;   printExtruders,
;   extruderName,Extruder 1
;   extruderToolheadNumber,0
;   extruderDiameter,0.4
;   extruderAutoWidth,0
;   extruderWidth,0.4
;   extrusionMultiplier,1
;   extruderUseRetract,1
;   extruderRetractionDistance,2
;   extruderExtraRestartDistance,0
;   extruderRetractionZLift,0
;   extruderRetractionSpeed,2400
;   extruderUseCoasting,0
;   extruderCoastingDistance,0.2
;   extruderUseWipe,1
;   extruderWipeDistance,5
;   primaryExtruder,0
;   layerHeight,0.2
;   topSolidLayers,5
;   bottomSolidLayers,5
;   perimeterOutlines,3
;   printPerimetersInsideOut,1
;   startPointOption,2
;   startPointOriginX,0
;   startPointOriginY,0
;   startPointOriginZ,0
;   sequentialIslands,0
;   spiralVaseMode,0
;   firstLayerHeightPercentage,97
;   firstLayerWidthPercentage,100
;   firstLayerUnderspeed,0.5
;   useRaft,0
;   raftExtruder,0
;   raftLayers,3
;   raftOffset,3
;   raftSeparationDistance,0.14
;   raftInfill,85
;   disableRaftBaseLayers,0
;   useSkirt,1
;   skirtExtruder,0
;   skirtLayers,1
;   skirtOutlines,2
;   skirtOffset,4
;   usePrimePillar,0
;   primePillarExtruder,999
;   primePillarWidth,4
;   primePillarLocation,7
;   primePillarSpeedMultiplier,1
;   useOozeShield,0
;   oozeShieldExtruder,999
;   oozeShieldOffset,5
;   oozeShieldOutlines,1
;   oozeShieldSidewallShape,0
;   oozeShieldSidewallAngle,30
;   oozeShieldSpeedMultiplier,1
;   infillExtruder,0
;   internalInfillPattern,Fast Honeycomb
;   externalInfillPattern,Rectilinear
;   infillPercentage,10
;   outlineOverlapPercentage,20
;   infillExtrusionWidthPercentage,130
;   minInfillLength,2
;   infillLayerInterval,1
;   infillAngles,0
;   overlapInfillAngles,0
;   generateSupport,0
;   supportExtruder,0
;   supportInfillPercentage,50
;   supportExtraInflation,0
;   denseSupportLayers,0
;   denseSupportInfillPercentage,70
;   supportLayerInterval,1
;   supportHorizontalPartOffset,0.3
;   supportUpperSeparationLayers,1
;   supportLowerSeparationLayers,1
;   supportType,1
;   supportGridSpacing,2.5
;   maxOverhangAngle,50
;   supportAngles,0
;   temperatureName,Extruder 1 Temperature,Heated Bed
;   temperatureNumber,0,0
;   temperatureSetpointCount,1,2
;   temperatureSetpointLayers,1,1,1
;   temperatureSetpointTemperatures,245,80,75
;   temperatureStabilizeAtStartup,1,1
;   temperatureHeatedBed,0,1
;   temperatureRelayBetweenLayers,0,0
;   temperatureRelayBetweenLoops,0,0
;   fanLayers,1,2
;   fanSpeeds,0,100
;   blipFanToFullPower,0
;   adjustSpeedForCooling,0
;   minSpeedLayerTime,5
;   minCoolingSpeedSlowdown,20
;   increaseFanForCooling,0
;   minFanLayerTime,45
;   maxCoolingFanSpeed,100
;   increaseFanForBridging,0
;   bridgingFanSpeed,100
;   use5D,1
;   relativeEdistances,0
;   allowEaxisZeroing,1
;   independentExtruderAxes,0
;   includeM10123,0
;   stickySupport,1
;   applyToolheadOffsets,0
;   gcodeXoffset,2
;   gcodeYoffset,1
;   gcodeZoffset,0
;   overrideMachineDefinition,1
;   machineTypeOverride,0
;   strokeXoverride,199
;   strokeYoverride,200
;   strokeZoverride,187
;   originOffsetXoverride,0
;   originOffsetYoverride,0
;   originOffsetZoverride,0
;   homeXdirOverride,-1
;   homeYdirOverride,-1
;   homeZdirOverride,-1
;   flipXoverride,1
;   flipYoverride,-1
;   flipZoverride,1
;   toolheadOffsets,0,0|0,0|0,0|0,0|0,0|0,0
;   overrideFirmwareConfiguration,1
;   firmwareTypeOverride,RepRap (Marlin/Repetier/Sprinter)
;   GPXconfigOverride,r2
;   baudRateOverride,250000
;   overridePrinterModels,0
;   printerModelsOverride
;   startingGcode,G90                         ; Explicitly force absolute positioning in case it was not reset previously.,G28                         ; Home all axes.,G29                         ; Auto-level the bed.,G0 X0 Y0 Z0.15 F9000        ; Move to the front-left part of the bed.,M109 S{print_temperature}   ; Set and wait for extruder temperature.,G92 E0                      ; Zero the extruder.,G1 X40 E25 F500             ; Extrude a fat line of filament to prime and clean the nozzle.,G92 E0                      ; Zero the extruder.,G1 E-1 F500                 ; Retract 1 mm.,G1 X80 F9000                ; Sweep right to cut any strings.
;   layerChangeGcode,
;   retractionGcode,
;   toolChangeGcode,
;   endingGcode,G91,G1 Z10,G92,G1 X10,M104 S0 ; turn off extruder,M140 S0 ; turn off bed,M84 ; disable motors,M106 S0
;   exportFileFormat,gcode
;   celebration,0
;   celebrationSong,Random Song
;   postProcessing,
;   defaultSpeed,1800
;   outlineUnderspeed,0.5
;   solidInfillUnderspeed,0.75
;   supportUnderspeed,0.7
;   rapidXYspeed,4800
;   rapidZspeed,600
;   minBridgingArea,50
;   bridgingExtraInflation,0
;   bridgingExtrusionMultiplier,1
;   bridgingSpeedMultiplier,1
;   filamentDiameter,1.75
;   filamentPricePerKg,25
;   filamentDensity,1.25
;   useMinPrintHeight,0
;   minPrintHeight,0
;   useMaxPrintHeight,0
;   maxPrintHeight,0
;   useDiaphragm,0
;   diaphragmLayerInterval,20
;   robustSlicing,1
;   mergeAllIntoSolid,0
;   onlyRetractWhenCrossingOutline,0
;   retractBetweenLayers,1
;   useRetractionMinTravel,0
;   retractionMinTravel,3
;   retractWhileWiping,1
;   onlyWipeOutlines,1
;   avoidCrossingOutline,0
;   maxMovementDetourFactor,3
;   toolChangeRetractionDistance,12
;   toolChangeExtraRestartDistance,-0.5
;   toolChangeRetractionSpeed,600
;   allowThinWallGapFill,1
;   thinWallAllowedOverlapPercentage,10
;   horizontalSizeCompensation,0
G90
M82
M106 S0
M140 S80
M190 S80
M104 S245 T0
M109 S245 T0
G90                         ; Explicitly force absolute positioning in case it was not reset previously.
G28                         ; Home all axes.
G29                         ; Auto-level the bed.
G0 X0 Y0 Z0.15 F9000        ; Move to the front-left part of the bed.
M109 S{print_temperature}   ; Set and wait for extruder temperature.
G92 E0                      ; Zero the extruder.
G1 X40 E25 F500             ; Extrude a fat line of filament to prime and clean the nozzle.
G92 E0                      ; Zero the extruder.
G1 E-1 F500                 ; Retract 1 mm.
G1 X80 F9000                ; Sweep right to cut any strings.
G92 E0
G1 E-2.0000 F2400
G1 Z0.194 F600
; layer 1, Z = 0.194
T0
; tool H0.200 W0.400
; skirt
G1 X22.626 Y28.218 F4800
G1 E0.0000 F720
G92 E0
G1 X22.847 Y28.127 E0.0079 F900
G1 X53.599 Y28.127 E1.0308
G1 X53.606 Y28.127 E1.0310
G1 X53.710 Y28.130 E1.0345
G1 X53.717 Y28.130 E1.0347
G1 X54.657 Y28.175 E1.0660
G1 X54.675 Y28.177 E1.0666
G1 X54.944 Y28.207 E1.0756
G1 X54.962 Y28.209 E1.0762
G1 X55.864 Y28.368 E1.1067
G1 X55.868 Y28.368 E1.1068
G1 X55.922 Y28.379 E1.1086
G1 X55.926 Y28.379 E1.1088
G1 X174.812 Y52.393 E5.1428
G1 X174.827 Y52.396 E5.1433
G1 X175.037 Y52.450 E5.1505
G1 X175.052 Y52.454 E5.1510
G1 X176.004 Y52.749 E5.1842
G1 X176.022 Y52.755 E5.1848
G1 X176.273 Y52.850 E5.1937
G1 X176.290 Y52.857 E5.1944
G1 X177.222 Y53.279 E5.2284
G1 X177.239 Y53.288 E5.2290
G1 X177.478 Y53.415 E5.2380
G1 X177.494 Y53.424 E5.2386
G1 X178.367 Y53.960 E5.2727
G1 X178.383 Y53.971 E5.2733
G1 X178.606 Y54.128 E5.2824
G1 X178.621 Y54.140 E5.2831
G1 X179.421 Y54.784 E5.3172
G1 X179.435 Y54.796 E5.3178
G1 X179.634 Y54.978 E5.3268
G1 X179.647 Y54.991 E5.3274
G1 X180.355 Y55.725 E5.3613
G1 X180.368 Y55.739 E5.3619
G1 X180.542 Y55.943 E5.3709
G1 X180.553 Y55.957 E5.3715
G1 X181.167 Y56.777 E5.4055
G1 X181.178 Y56.792 E5.4061
G1 X181.325 Y57.017 E5.4151
G1 X181.335 Y57.033 E5.4157
G1 X181.842 Y57.924 E5.4498
G1 X181.851 Y57.941 E5.4505
G1 X181.972 Y58.188 E5.4596
G1 X181.980 Y58.206 E5.4602
G1 X182.370 Y59.154 E5.4944
G1 X182.376 Y59.172 E5.4950
G1 X182.463 Y59.427 E5.5039
G1 X182.468 Y59.444 E5.5046
G1 X182.736 Y60.431 E5.5385
G1 X182.740 Y60.449 E5.5392
G1 X182.794 Y60.711 E5.5481
G1 X182.797 Y60.730 E5.5487
G1 X182.940 Y61.742 E5.5827
G1 X182.942 Y61.760 E5.5833
G1 X182.963 Y62.031 E5.5923
G1 X182.964 Y62.050 E5.5930
G1 X182.978 Y63.075 E5.6271
G1 X182.978 Y63.094 E5.6277
G1 X182.965 Y63.363 E5.6367
G1 X182.963 Y63.382 E5.6373
G1 X182.857 Y64.331 E5.6690
G1 X182.856 Y64.340 E5.6694
G1 X182.836 Y64.475 E5.6739
G1 X182.835 Y64.484 E5.6742
G1 X165.080 Y165.181 E9.0751
G1 X165.078 Y165.190 E9.0754
G1 X165.050 Y165.323 E9.0799
G1 X165.048 Y165.332 E9.0802
G1 X164.823 Y166.262 E9.1120
G1 X164.818 Y166.280 E9.1126
G1 X164.738 Y166.539 E9.1216
G1 X164.732 Y166.557 E9.1223
G1 X164.367 Y167.515 E9.1564
G1 X164.360 Y167.532 E9.1570
G1 X164.248 Y167.778 E9.1660
G1 X164.240 Y167.795 E9.1666
G1 X163.760 Y168.697 E9.2006
G1 X163.750 Y168.714 E9.2012
G1 X163.610 Y168.942 E9.2101
G1 X163.600 Y168.957 E9.2108
G1 X163.010 Y169.794 E9.2448
G1 X162.999 Y169.809 E9.2454
G1 X162.829 Y170.021 E9.2544
G1 X162.817 Y170.035 E9.2551
G1 X162.126 Y170.792 E9.2892
G1 X162.112 Y170.806 E9.2898
G1 X161.915 Y170.995 E9.2989
G1 X161.901 Y171.008 E9.2995
G1 X161.120 Y171.671 E9.3336
G1 X161.106 Y171.682 E9.3342
G1 X160.893 Y171.841 E9.3430
G1 X160.878 Y171.852 E9.3437
G1 X160.024 Y172.412 E9.3776
G1 X160.008 Y172.422 E9.3782
G1 X159.772 Y172.556 E9.3873
G1 X159.755 Y172.565 E9.3879
G1 X158.833 Y173.015 E9.4220
G1 X158.816 Y173.023 E9.4227
G1 X158.564 Y173.126 E9.4317
G1 X158.547 Y173.133 E9.4323
G1 X157.579 Y173.462 E9.4663
G1 X157.561 Y173.467 E9.4670
G1 X157.303 Y173.537 E9.4759
G1 X157.285 Y173.542 E9.4765
G1 X156.283 Y173.748 E9.5105
G1 X156.264 Y173.751 E9.5111
G1 X155.995 Y173.789 E9.5202
G1 X155.976 Y173.792 E9.5208
G1 X155.007 Y173.866 E9.5531
G1 X154.996 Y173.867 E9.5535
G1 X154.830 Y173.873 E9.5590
G1 X154.819 Y173.873 E9.5594
G1 X22.846 Y173.873 E13.9488
G1 X22.626 Y173.782 E13.9567
G1 X20.114 Y171.270 E14.0749
G1 X20.023 Y171.050 E14.0828
G1 X20.023 Y30.950 E18.7426
G1 X20.114 Y30.730 E18.7505
G1 X22.626 Y28.218 E18.8687
G92 E0
G1 E-2.0000 F2400
G1 X22.853 Y28.557 F4800
G1 E0.0000 F2400
G92 E0
G1 X22.926 Y28.527 E0.0026 F900
G1 X53.596 Y28.527 E1.0227
G1 X53.599 Y28.527 E1.0228
G1 X53.698 Y28.530 E1.0261
G1 X53.700 Y28.530 E1.0262
G1 X54.631 Y28.575 E1.0572
G1 X54.637 Y28.575 E1.0574
G1 X54.893 Y28.604 E1.0660
G1 X54.899 Y28.605 E1.0662
G1 X55.794 Y28.762 E1.0964
G1 X55.847 Y28.771 E1.0981
G1 X174.728 Y52.784 E5.1319
G1 X174.733 Y52.785 E5.1321
G1 X174.933 Y52.836 E5.1390
G1 X174.938 Y52.838 E5.1392
G1 X175.880 Y53.129 E5.1719
G1 X175.885 Y53.131 E5.1721
G1 X176.125 Y53.222 E5.1807
G1 X176.131 Y53.224 E5.1809
G1 X177.051 Y53.641 E5.2145
G1 X177.057 Y53.644 E5.2147
G1 X177.284 Y53.765 E5.2233
G1 X177.290 Y53.768 E5.2235
G1 X178.152 Y54.298 E5.2571
G1 X178.157 Y54.301 E5.2573
G1 X178.370 Y54.452 E5.2660
G1 X178.375 Y54.455 E5.2662
G1 X179.165 Y55.091 E5.2999
G1 X179.169 Y55.095 E5.3001
G1 X179.359 Y55.269 E5.3087
G1 X179.363 Y55.273 E5.3089
G1 X180.063 Y55.998 E5.3424
G1 X180.067 Y56.003 E5.3426
G1 X180.233 Y56.197 E5.3511
G1 X180.237 Y56.202 E5.3513
G1 X180.843 Y57.011 E5.3849
G1 X180.847 Y57.017 E5.3852
G1 X180.987 Y57.231 E5.3937
G1 X180.990 Y57.237 E5.3939
G1 X181.492 Y58.117 E5.4276
G1 X181.495 Y58.122 E5.4278
G1 X181.610 Y58.358 E5.4365
G1 X181.612 Y58.364 E5.4367
G1 X181.997 Y59.301 E5.4704
G1 X181.999 Y59.306 E5.4706
G1 X182.082 Y59.549 E5.4792
G1 X182.084 Y59.555 E5.4794
G1 X182.348 Y60.529 E5.5129
G1 X182.349 Y60.535 E5.5131
G1 X182.401 Y60.786 E5.5216
G1 X182.402 Y60.792 E5.5218
G1 X182.543 Y61.791 E5.5554
G1 X182.544 Y61.798 E5.5556
G1 X182.564 Y62.056 E5.5642
G1 X182.564 Y62.062 E5.5644
G1 X182.578 Y63.075 E5.5981
G1 X182.578 Y63.081 E5.5983
G1 X182.565 Y63.338 E5.6069
G1 X182.565 Y63.344 E5.6071
G1 X182.460 Y64.283 E5.6385
G1 X182.459 Y64.287 E5.6386
G1 X182.441 Y64.415 E5.6430
G1 X182.440 Y64.418 E5.6431
G1 X164.686 Y165.109 E9.0437
G1 X164.686 Y165.112 E9.0438
G1 X164.659 Y165.238 E9.0481
G1 X164.659 Y165.241 E9.0482
G1 X164.436 Y166.161 E9.0797
G1 X164.434 Y166.167 E9.0799
G1 X164.358 Y166.415 E9.0885
G1 X164.356 Y166.421 E9.0887
G1 X163.996 Y167.366 E9.1224
G1 X163.993 Y167.372 E9.1226
G1 X163.887 Y167.607 E9.1312
G1 X163.884 Y167.612 E9.1314
G1 X163.409 Y168.504 E9.1650
G1 X163.406 Y168.509 E9.1652
G1 X163.272 Y168.727 E9.1737
G1 X163.269 Y168.732 E9.1739
G1 X162.687 Y169.558 E9.2075
G1 X162.683 Y169.563 E9.2077
G1 X162.521 Y169.765 E9.2163
G1 X162.517 Y169.770 E9.2165
G1 X161.834 Y170.517 E9.2502
G1 X161.830 Y170.522 E9.2504
G1 X161.642 Y170.703 E9.2591
G1 X161.638 Y170.707 E9.2593
G1 X160.866 Y171.362 E9.2929
G1 X160.861 Y171.366 E9.2931
G1 X160.659 Y171.517 E9.3015
G1 X160.654 Y171.521 E9.3018
G1 X159.810 Y172.074 E9.3353
G1 X159.805 Y172.077 E9.3355
G1 X159.580 Y172.205 E9.3441
G1 X159.574 Y172.208 E9.3443
G1 X158.663 Y172.652 E9.3780
G1 X158.657 Y172.655 E9.3783
G1 X158.418 Y172.754 E9.3869
G1 X158.412 Y172.756 E9.3871
G1 X157.456 Y173.081 E9.4207
G1 X157.450 Y173.083 E9.4209
G1 X157.204 Y173.150 E9.4294
G1 X157.198 Y173.151 E9.4296
G1 X156.209 Y173.355 E9.4632
G1 X156.202 Y173.356 E9.4634
G1 X155.946 Y173.393 E9.4720
G1 X155.939 Y173.393 E9.4722
G1 X154.980 Y173.467 E9.5042
G1 X154.976 Y173.467 E9.5043
G1 X154.819 Y173.473 E9.5096
G1 X154.815 Y173.473 E9.5097
G1 X22.926 Y173.473 E13.8963
G1 X22.853 Y173.443 E13.8990
G1 X20.453 Y171.044 E14.0118
G1 X20.423 Y170.970 E14.0145
G1 X20.423 Y31.030 E18.6689
G1 X20.453 Y30.956 E18.6716
G1 X22.853 Y28.557 E18.7844
G92 E0
G1 E-2.0000 F2400
; inner perimeter
G1 X25.623 Y33.727 F4800
G1 E0.0000 F2400
G92 E0
G1 X53.523 Y33.727 E0.9280 F750
G1 X54.189 Y33.759 E0.9501
G1 X54.857 Y33.877 E0.9727
G1 X173.547 Y57.850 E5.0001
G1 X174.159 Y58.040 E5.0214
G1 X174.731 Y58.299 E5.0423
G1 X175.265 Y58.627 E5.0631
G1 X175.754 Y59.021 E5.0840
G1 X176.189 Y59.472 E5.1048
G1 X176.566 Y59.976 E5.1258
G1 X176.877 Y60.521 E5.1466
G1 X177.115 Y61.101 E5.1675
G1 X177.279 Y61.707 E5.1884
G1 X177.367 Y62.327 E5.2092
G1 X177.376 Y62.956 E5.2301
G1 X177.303 Y63.610 E5.2520
G1 X159.582 Y164.111 E8.6463
G1 X159.427 Y164.751 E8.6682
G1 X159.204 Y165.338 E8.6890
G1 X158.909 Y165.893 E8.7100
G1 X158.547 Y166.406 E8.7308
G1 X158.125 Y166.868 E8.7516
G1 X157.645 Y167.275 E8.7726
G1 X157.120 Y167.619 E8.7934
G1 X156.556 Y167.895 E8.8143
G1 X155.962 Y168.097 E8.8352
G1 X155.347 Y168.223 E8.8561
G1 X154.698 Y168.273 E8.8777
G1 X52.164 Y168.273 E12.2880
G1 X52.777 Y167.474 E12.3215
G1 X53.083 Y166.736 E12.3481
G1 X53.187 Y165.943 E12.3747
G1 X53.083 Y165.151 E12.4013
G1 X52.777 Y164.413 E12.4279
G1 X52.291 Y163.779 E12.4545
G1 X51.657 Y163.292 E12.4810
G1 X50.918 Y162.986 E12.5076
G1 X50.126 Y162.882 E12.5342
G1 X49.333 Y162.986 E12.5608
G1 X48.595 Y163.292 E12.5874
G1 X47.961 Y163.779 E12.6140
G1 X47.474 Y164.413 E12.6405
G1 X47.168 Y165.151 E12.6671
G1 X47.064 Y165.943 E12.6937
G1 X47.168 Y166.736 E12.7203
G1 X47.474 Y167.474 E12.7469
G1 X48.088 Y168.273 E12.7804
G1 X36.754 Y168.273 E13.1573
G1 X37.368 Y167.474 E13.1908
G1 X37.673 Y166.736 E13.2174
G1 X37.778 Y165.943 E13.2440
G1 X37.673 Y165.151 E13.2706
G1 X37.368 Y164.413 E13.2972
G1 X36.881 Y163.779 E13.3237
G1 X36.247 Y163.292 E13.3503
G1 X35.508 Y162.986 E13.3769
G1 X34.716 Y162.882 E13.4035
G1 X33.924 Y162.986 E13.4301
G1 X33.185 Y163.292 E13.4566
G1 X32.551 Y163.779 E13.4832
G1 X32.065 Y164.413 E13.5098
G1 X31.759 Y165.151 E13.5364
G1 X31.654 Y165.943 E13.5630
G1 X31.759 Y166.736 E13.5896
G1 X32.065 Y167.474 E13.6161
G1 X32.678 Y168.273 E13.6497
G1 X25.623 Y168.273 E13.8843
G1 X25.623 Y33.727 E18.3594
G92 E0
G1 E-2.0000 F2400
; inner perimeter
G1 X25.223 Y33.327 F4800
G1 E0.0000 F2400
G92 E0
G1 X53.532 Y33.327 E0.9416 F600
G1 X54.234 Y33.361 E0.9649
G1 X54.930 Y33.483 E0.9885
G1 X173.646 Y57.462 E5.0167
G1 X174.301 Y57.665 E5.0395
G1 X174.919 Y57.945 E5.0621
G1 X175.496 Y58.299 E5.0846
G1 X176.024 Y58.725 E5.1072
G1 X176.494 Y59.212 E5.1297
G1 X176.902 Y59.756 E5.1523
G1 X177.237 Y60.345 E5.1748
G1 X177.494 Y60.972 E5.1974
G1 X177.672 Y61.626 E5.2199
G1 X177.767 Y62.296 E5.2424
G1 X177.776 Y62.976 E5.2650
G1 X177.699 Y63.667 E5.2881
G1 X159.974 Y164.193 E8.6832
G1 X159.810 Y164.870 E8.7064
