; G-Code generated by Simplify3D(R) Version 3.1.1
; Jan 21, 2017 at 5:29:50 PM
; Settings Summary
;   processName,PETG
;   applyToModels,Split 62 top right
;   profileName,PETG (modified)
;   profileVersion,2017-01-13 12:39:15
;   baseProfile,Duplicator_I3_60micron (modified)
;   printMaterial,ABS
;   printQuality,Medium
;   printExtruders,
;   extruderName,Extruder 1
;   extruderToolheadNumber,0
;   extruderDiameter,0.4
;   extruderAutoWidth,0
;   extruderWidth,0.4
;   extrusionMultiplier,1
;   extruderUseRetract,1
;   extruderRetractionDistance,2
;   extruderExtraRestartDistance,0
;   extruderRetractionZLift,0
;   extruderRetractionSpeed,2400
;   extruderUseCoasting,0
;   extruderCoastingDistance,0.2
;   extruderUseWipe,1
;   extruderWipeDistance,5
;   primaryExtruder,0
;   layerHeight,0.2
;   topSolidLayers,5
;   bottomSolidLayers,5
;   perimeterOutlines,3
;   printPerimetersInsideOut,1
;   startPointOption,2
;   startPointOriginX,0
;   startPointOriginY,0
;   startPointOriginZ,0
;   sequentialIslands,0
;   spiralVaseMode,0
;   firstLayerHeightPercentage,97
;   firstLayerWidthPercentage,100
;   firstLayerUnderspeed,0.5
;   useRaft,0
;   raftExtruder,0
;   raftLayers,3
;   raftOffset,3
;   raftSeparationDistance,0.14
;   raftInfill,85
;   disableRaftBaseLayers,0
;   useSkirt,1
;   skirtExtruder,0
;   skirtLayers,1
;   skirtOutlines,2
;   skirtOffset,4
;   usePrimePillar,0
;   primePillarExtruder,999
;   primePillarWidth,4
;   primePillarLocation,7
;   primePillarSpeedMultiplier,1
;   useOozeShield,0
;   oozeShieldExtruder,999
;   oozeShieldOffset,5
;   oozeShieldOutlines,1
;   oozeShieldSidewallShape,0
;   oozeShieldSidewallAngle,30
;   oozeShieldSpeedMultiplier,1
;   infillExtruder,0
;   internalInfillPattern,Fast Honeycomb
;   externalInfillPattern,Rectilinear
;   infillPercentage,10
;   outlineOverlapPercentage,20
;   infillExtrusionWidthPercentage,130
;   minInfillLength,2
;   infillLayerInterval,1
;   infillAngles,0
;   overlapInfillAngles,0
;   generateSupport,0
;   supportExtruder,0
;   supportInfillPercentage,50
;   supportExtraInflation,0
;   denseSupportLayers,0
;   denseSupportInfillPercentage,70
;   supportLayerInterval,1
;   supportHorizontalPartOffset,0.3
;   supportUpperSeparationLayers,1
;   supportLowerSeparationLayers,1
;   supportType,1
;   supportGridSpacing,2.5
;   maxOverhangAngle,50
;   supportAngles,0
;   temperatureName,Extruder 1 Temperature,Heated Bed
;   temperatureNumber,0,0
;   temperatureSetpointCount,1,2
;   temperatureSetpointLayers,1,1,1
;   temperatureSetpointTemperatures,245,80,75
;   temperatureStabilizeAtStartup,1,1
;   temperatureHeatedBed,0,1
;   temperatureRelayBetweenLayers,0,0
;   temperatureRelayBetweenLoops,0,0
;   fanLayers,1,2
;   fanSpeeds,0,100
;   blipFanToFullPower,0
;   adjustSpeedForCooling,0
;   minSpeedLayerTime,5
;   minCoolingSpeedSlowdown,20
;   increaseFanForCooling,0
;   minFanLayerTime,45
;   maxCoolingFanSpeed,100
;   increaseFanForBridging,0
;   bridgingFanSpeed,100
;   use5D,1
;   relativeEdistances,0
;   allowEaxisZeroing,1
;   independentExtruderAxes,0
;   includeM10123,0
;   stickySupport,1
;   applyToolheadOffsets,0
;   gcodeXoffset,2
;   gcodeYoffset,1
;   gcodeZoffset,0
;   overrideMachineDefinition,1
;   machineTypeOverride,0
;   strokeXoverride,199
;   strokeYoverride,200
;   strokeZoverride,187
;   originOffsetXoverride,0
;   originOffsetYoverride,0
;   originOffsetZoverride,0
;   homeXdirOverride,-1
;   homeYdirOverride,-1
;   homeZdirOverride,-1
;   flipXoverride,1
;   flipYoverride,-1
;   flipZoverride,1
;   toolheadOffsets,0,0|0,0|0,0|0,0|0,0|0,0
;   overrideFirmwareConfiguration,1
;   firmwareTypeOverride,RepRap (Marlin/Repetier/Sprinter)
;   GPXconfigOverride,r2
;   baudRateOverride,250000
;   overridePrinterModels,0
;   printerModelsOverride
;   startingGcode,G90                         ; Explicitly force absolute positioning in case it was not reset previously.,G28                         ; Home all axes.,G29                         ; Auto-level the bed.,G0 X0 Y0 Z0.15 F9000        ; Move to the front-left part of the bed.,M109 S{print_temperature}   ; Set and wait for extruder temperature.,G92 E0                      ; Zero the extruder.,G1 X40 E25 F500             ; Extrude a fat line of filament to prime and clean the nozzle.,G92 E0                      ; Zero the extruder.,G1 E-1 F500                 ; Retract 1 mm.,G1 X80 F9000                ; Sweep right to cut any strings.
;   layerChangeGcode,
;   retractionGcode,
;   toolChangeGcode,
;   endingGcode,G91,G1 Z10,G92,G1 X10,M104 S0 ; turn off extruder,M140 S0 ; turn off bed,M84 ; disable motors,M106 S0
;   exportFileFormat,gcode
;   celebration,0
;   celebrationSong,Random Song
;   postProcessing,
;   defaultSpeed,1800
;   outlineUnderspeed,0.5
;   solidInfillUnderspeed,0.75
;   supportUnderspeed,0.7
;   rapidXYspeed,4800
;   rapidZspeed,600
;   minBridgingArea,50
;   bridgingExtraInflation,0
;   bridgingExtrusionMultiplier,1
;   bridgingSpeedMultiplier,1
;   filamentDiameter,1.75
;   filamentPricePerKg,25
;   filamentDensity,1.25
;   useMinPrintHeight,0
;   minPrintHeight,0
;   useMaxPrintHeight,0
;   maxPrintHeight,0
;   useDiaphragm,0
;   diaphragmLayerInterval,20
;   robustSlicing,1
;   mergeAllIntoSolid,0
;   onlyRetractWhenCrossingOutline,0
;   retractBetweenLayers,1
;   useRetractionMinTravel,0
;   retractionMinTravel,3
;   retractWhileWiping,1
;   onlyWipeOutlines,1
;   avoidCrossingOutline,0
;   maxMovementDetourFactor,3
;   toolChangeRetractionDistance,12
;   toolChangeExtraRestartDistance,-0.5
;   toolChangeRetractionSpeed,600
;   allowThinWallGapFill,1
;   thinWallAllowedOverlapPercentage,10
;   horizontalSizeCompensation,0
G90
M82
M106 S0
M140 S80
M190 S80
M104 S245 T0
M109 S245 T0
G90                         ; Explicitly force absolute positioning in case it was not reset previously.
G28                         ; Home all axes.
G29                         ; Auto-level the bed.
G0 X0 Y0 Z0.15 F9000        ; Move to the front-left part of the bed.
M109 S{print_temperature}   ; Set and wait for extruder temperature.
G92 E0                      ; Zero the extruder.
G1 X40 E25 F500             ; Extrude a fat line of filament to prime and clean the nozzle.
G92 E0                      ; Zero the extruder.
G1 E-1 F500                 ; Retract 1 mm.
G1 X80 F9000                ; Sweep right to cut any strings.
G92 E0
G1 E-2.0000 F2400
G1 Z0.194 F600
; layer 1, Z = 0.194
T0
; tool H0.200 W0.400
; skirt
G1 X25.778 Y53.280 F4800
G1 E0.0000 F720
G92 E0
G1 X26.710 Y52.858 E0.0340 F900
G1 X26.727 Y52.850 E0.0346
G1 X26.978 Y52.755 E0.0436
G1 X26.996 Y52.749 E0.0442
G1 X27.948 Y52.454 E0.0774
G1 X27.963 Y52.450 E0.0779
G1 X28.173 Y52.396 E0.0851
G1 X28.188 Y52.393 E0.0856
G1 X147.074 Y28.379 E4.1196
G1 X147.078 Y28.379 E4.1197
G1 X147.132 Y28.368 E4.1216
G1 X147.136 Y28.368 E4.1217
G1 X148.038 Y28.209 E4.1522
G1 X148.056 Y28.207 E4.1528
G1 X148.325 Y28.177 E4.1618
G1 X148.343 Y28.175 E4.1624
G1 X149.283 Y28.130 E4.1937
G1 X149.290 Y28.130 E4.1939
G1 X149.394 Y28.127 E4.1974
G1 X149.401 Y28.127 E4.1976
G1 X180.153 Y28.127 E5.2204
G1 X180.374 Y28.218 E5.2284
G1 X182.886 Y30.730 E5.3465
G1 X182.977 Y30.950 E5.3545
G1 X182.977 Y171.050 E10.0142
G1 X182.886 Y171.270 E10.0221
G1 X180.374 Y173.782 E10.1403
G1 X180.154 Y173.873 E10.1482
G1 X48.181 Y173.873 E14.5376
G1 X48.170 Y173.873 E14.5380
G1 X48.004 Y173.867 E14.5435
G1 X47.993 Y173.866 E14.5439
G1 X47.024 Y173.792 E14.5762
G1 X47.005 Y173.789 E14.5769
G1 X46.736 Y173.751 E14.5859
G1 X46.717 Y173.748 E14.5865
G1 X45.715 Y173.542 E14.6206
G1 X45.697 Y173.537 E14.6212
G1 X45.439 Y173.467 E14.6301
G1 X45.421 Y173.462 E14.6307
G1 X44.453 Y173.133 E14.6647
G1 X44.435 Y173.126 E14.6653
G1 X44.184 Y173.022 E14.6744
G1 X44.167 Y173.015 E14.6750
G1 X43.245 Y172.565 E14.7091
G1 X43.228 Y172.556 E14.7098
G1 X42.992 Y172.422 E14.7188
G1 X42.976 Y172.412 E14.7194
G1 X42.122 Y171.852 E14.7534
G1 X42.107 Y171.841 E14.7540
G1 X41.894 Y171.682 E14.7628
G1 X41.880 Y171.671 E14.7634
G1 X41.099 Y171.008 E14.7975
G1 X41.085 Y170.995 E14.7981
G1 X40.888 Y170.806 E14.8072
G1 X40.874 Y170.792 E14.8079
G1 X40.183 Y170.035 E14.8420
G1 X40.171 Y170.021 E14.8426
G1 X40.001 Y169.809 E14.8516
G1 X39.990 Y169.794 E14.8522
G1 X39.400 Y168.957 E14.8863
G1 X39.390 Y168.942 E14.8869
G1 X39.250 Y168.714 E14.8958
G1 X39.240 Y168.697 E14.8964
G1 X38.760 Y167.795 E14.9304
G1 X38.752 Y167.778 E14.9311
G1 X38.640 Y167.532 E14.9400
G1 X38.633 Y167.515 E14.9407
G1 X38.268 Y166.557 E14.9748
G1 X38.262 Y166.539 E14.9754
G1 X38.182 Y166.280 E14.9844
G1 X38.177 Y166.262 E14.9850
G1 X37.952 Y165.332 E15.0169
G1 X37.950 Y165.323 E15.0172
G1 X37.922 Y165.190 E15.0217
G1 X37.920 Y165.181 E15.0220
G1 X20.165 Y64.484 E18.4228
G1 X20.164 Y64.475 E18.4231
G1 X20.144 Y64.340 E18.4277
G1 X20.143 Y64.331 E18.4280
G1 X20.037 Y63.382 E18.4597
G1 X20.035 Y63.363 E18.4604
G1 X20.022 Y63.094 E18.4693
G1 X20.022 Y63.075 E18.4700
G1 X20.036 Y62.050 E18.5041
G1 X20.037 Y62.031 E18.5047
G1 X20.058 Y61.760 E18.5137
G1 X20.060 Y61.742 E18.5144
G1 X20.203 Y60.730 E18.5483
G1 X20.206 Y60.711 E18.5490
G1 X20.260 Y60.449 E18.5579
G1 X20.264 Y60.431 E18.5585
G1 X20.532 Y59.444 E18.5925
G1 X20.537 Y59.427 E18.5931
G1 X20.624 Y59.172 E18.6020
G1 X20.630 Y59.154 E18.6027
G1 X21.020 Y58.206 E18.6368
G1 X21.028 Y58.188 E18.6374
G1 X21.149 Y57.941 E18.6466
G1 X21.157 Y57.924 E18.6472
G1 X21.665 Y57.034 E18.6813
G1 X21.674 Y57.018 E18.6819
G1 X21.821 Y56.795 E18.6908
G1 X21.831 Y56.779 E18.6914
G1 X22.444 Y55.960 E18.7254
G1 X22.456 Y55.945 E18.7261
G1 X22.631 Y55.738 E18.7351
G1 X22.644 Y55.724 E18.7357
G1 X23.355 Y54.989 E18.7697
G1 X23.368 Y54.976 E18.7703
G1 X23.566 Y54.795 E18.7793
G1 X23.580 Y54.783 E18.7799
G1 X24.379 Y54.140 E18.8140
G1 X24.394 Y54.128 E18.8146
G1 X24.617 Y53.971 E18.8237
G1 X24.633 Y53.960 E18.8243
G1 X25.506 Y53.424 E18.8584
G1 X25.522 Y53.415 E18.8590
G1 X25.761 Y53.288 E18.8680
G1 X25.778 Y53.280 E18.8687
G92 E0
G1 E-2.0000 F2400
G1 X25.949 Y53.641 F4800
G1 E0.0000 F2400
G92 E0
G1 X26.869 Y53.224 E0.0336 F900
G1 X26.875 Y53.222 E0.0338
G1 X27.115 Y53.131 E0.0423
G1 X27.120 Y53.129 E0.0425
G1 X28.062 Y52.838 E0.0753
G1 X28.067 Y52.836 E0.0755
G1 X28.267 Y52.785 E0.0824
G1 X28.272 Y52.784 E0.0825
G1 X147.152 Y28.772 E4.1164
G1 X147.205 Y28.762 E4.1181
G1 X148.101 Y28.605 E4.1483
G1 X148.107 Y28.604 E4.1485
G1 X148.363 Y28.575 E4.1571
G1 X148.369 Y28.575 E4.1573
G1 X149.300 Y28.530 E4.1883
G1 X149.302 Y28.530 E4.1884
G1 X149.401 Y28.527 E4.1917
G1 X149.404 Y28.527 E4.1917
G1 X180.074 Y28.527 E5.2118
G1 X180.147 Y28.557 E5.2145
G1 X182.547 Y30.956 E5.3273
G1 X182.577 Y31.030 E5.3300
G1 X182.577 Y170.970 E9.9844
G1 X182.547 Y171.044 E9.9871
G1 X180.147 Y173.443 E10.0999
G1 X180.074 Y173.473 E10.1026
G1 X48.185 Y173.473 E14.4892
G1 X48.181 Y173.473 E14.4893
G1 X48.024 Y173.467 E14.4946
G1 X48.020 Y173.467 E14.4947
G1 X47.061 Y173.393 E14.5267
G1 X47.054 Y173.393 E14.5269
G1 X46.798 Y173.356 E14.5355
G1 X46.791 Y173.355 E14.5358
G1 X45.802 Y173.151 E14.5693
G1 X45.796 Y173.150 E14.5696
G1 X45.550 Y173.083 E14.5780
G1 X45.544 Y173.081 E14.5782
G1 X44.588 Y172.756 E14.6118
G1 X44.582 Y172.754 E14.6120
G1 X44.343 Y172.655 E14.6207
G1 X44.337 Y172.652 E14.6209
G1 X43.426 Y172.208 E14.6546
G1 X43.420 Y172.205 E14.6548
G1 X43.195 Y172.077 E14.6634
G1 X43.190 Y172.074 E14.6636
G1 X42.346 Y171.521 E14.6972
G1 X42.341 Y171.517 E14.6974
G1 X42.139 Y171.366 E14.7058
G1 X42.134 Y171.362 E14.7060
G1 X41.362 Y170.707 E14.7396
G1 X41.358 Y170.703 E14.7398
G1 X41.170 Y170.522 E14.7485
G1 X41.165 Y170.517 E14.7487
G1 X40.483 Y169.770 E14.7824
G1 X40.479 Y169.765 E14.7826
G1 X40.317 Y169.563 E14.7912
G1 X40.313 Y169.558 E14.7914
G1 X39.731 Y168.732 E14.8250
G1 X39.728 Y168.727 E14.8252
G1 X39.594 Y168.509 E14.8337
G1 X39.591 Y168.504 E14.8339
G1 X39.116 Y167.612 E14.8675
G1 X39.113 Y167.607 E14.8678
G1 X39.007 Y167.372 E14.8763
G1 X39.004 Y167.367 E14.8765
G1 X38.644 Y166.421 E14.9102
G1 X38.642 Y166.415 E14.9104
G1 X38.566 Y166.167 E14.9190
G1 X38.564 Y166.161 E14.9192
G1 X38.341 Y165.241 E14.9507
G1 X38.341 Y165.238 E14.9508
G1 X38.314 Y165.112 E14.9551
G1 X38.314 Y165.109 E14.9552
G1 X20.560 Y64.418 E18.3559
G1 X20.559 Y64.415 E18.3560
G1 X20.541 Y64.287 E18.3603
G1 X20.540 Y64.283 E18.3604
G1 X20.435 Y63.344 E18.3918
G1 X20.435 Y63.338 E18.3920
G1 X20.422 Y63.081 E18.4006
G1 X20.422 Y63.074 E18.4008
G1 X20.436 Y62.062 E18.4345
G1 X20.436 Y62.056 E18.4347
G1 X20.456 Y61.798 E18.4433
G1 X20.457 Y61.791 E18.4435
G1 X20.598 Y60.792 E18.4771
G1 X20.599 Y60.786 E18.4773
G1 X20.651 Y60.535 E18.4858
G1 X20.652 Y60.529 E18.4860
G1 X20.916 Y59.555 E18.5196
G1 X20.918 Y59.549 E18.5198
G1 X21.001 Y59.306 E18.5283
G1 X21.003 Y59.301 E18.5285
G1 X21.388 Y58.364 E18.5622
G1 X21.390 Y58.358 E18.5624
G1 X21.505 Y58.122 E18.5711
G1 X21.508 Y58.117 E18.5713
G1 X22.009 Y57.237 E18.6050
G1 X22.012 Y57.232 E18.6052
G1 X22.152 Y57.019 E18.6137
G1 X22.155 Y57.014 E18.6139
G1 X22.760 Y56.205 E18.6475
G1 X22.764 Y56.200 E18.6477
G1 X22.932 Y56.002 E18.6563
G1 X22.936 Y55.998 E18.6565
G1 X23.638 Y55.271 E18.6901
G1 X23.643 Y55.267 E18.6903
G1 X23.831 Y55.095 E18.6988
G1 X23.836 Y55.091 E18.6990
G1 X24.625 Y54.455 E18.7327
G1 X24.630 Y54.452 E18.7329
G1 X24.843 Y54.301 E18.7416
G1 X24.848 Y54.298 E18.7418
G1 X25.710 Y53.768 E18.7754
G1 X25.716 Y53.765 E18.7757
G1 X25.943 Y53.644 E18.7842
G1 X25.949 Y53.641 E18.7844
G92 E0
G1 E-2.0000 F2400
; inner perimeter
G1 X28.269 Y58.299 F4800
G1 E0.0000 F2400
G92 E0
G1 X28.841 Y58.040 E0.0209 F750
G1 X29.453 Y57.850 E0.0422
G1 X148.143 Y33.877 E4.0696
G1 X148.811 Y33.759 E4.0921
G1 X149.477 Y33.727 E4.1143
G1 X177.377 Y33.727 E5.0423
G1 X177.377 Y168.273 E9.5173
G1 X170.322 Y168.273 E9.7520
G1 X170.935 Y167.474 E9.7855
G1 X171.241 Y166.736 E9.8121
G1 X171.346 Y165.943 E9.8386
G1 X171.241 Y165.151 E9.8652
G1 X170.935 Y164.413 E9.8918
G1 X170.449 Y163.779 E9.9184
G1 X169.815 Y163.292 E9.9450
G1 X169.076 Y162.986 E9.9716
G1 X168.284 Y162.882 E9.9981
G1 X167.492 Y162.986 E10.0247
G1 X166.753 Y163.292 E10.0513
G1 X166.119 Y163.779 E10.0779
G1 X165.632 Y164.413 E10.1045
G1 X165.327 Y165.151 E10.1311
G1 X165.222 Y165.943 E10.1576
G1 X165.327 Y166.736 E10.1842
G1 X165.632 Y167.474 E10.2108
G1 X166.246 Y168.273 E10.2443
G1 X154.912 Y168.273 E10.6213
G1 X155.526 Y167.474 E10.6548
G1 X155.832 Y166.736 E10.6813
G1 X155.936 Y165.943 E10.7079
G1 X155.832 Y165.151 E10.7345
G1 X155.526 Y164.413 E10.7611
G1 X155.039 Y163.779 E10.7877
G1 X154.405 Y163.292 E10.8143
G1 X153.667 Y162.986 E10.8408
G1 X152.874 Y162.882 E10.8674
G1 X152.082 Y162.986 E10.8940
G1 X151.343 Y163.292 E10.9206
G1 X150.709 Y163.779 E10.9472
G1 X150.223 Y164.413 E10.9738
G1 X149.917 Y165.151 E11.0003
G1 X149.813 Y165.943 E11.0269
G1 X149.917 Y166.736 E11.0535
G1 X150.223 Y167.474 E11.0801
G1 X150.836 Y168.273 E11.1136
G1 X48.302 Y168.273 E14.5239
G1 X47.653 Y168.223 E14.5455
G1 X47.038 Y168.097 E14.5664
G1 X46.444 Y167.895 E14.5873
G1 X45.880 Y167.619 E14.6082
G1 X45.354 Y167.275 E14.6291
G1 X44.875 Y166.868 E14.6500
G1 X44.453 Y166.406 E14.6708
G1 X44.091 Y165.893 E14.6917
G1 X43.796 Y165.338 E14.7126
G1 X43.573 Y164.751 E14.7335
G1 X43.418 Y164.111 E14.7554
G1 X25.697 Y63.610 E18.1496
G1 X25.624 Y62.956 E18.1715
G1 X25.633 Y62.327 E18.1924
G1 X25.721 Y61.707 E18.2132
G1 X25.885 Y61.101 E18.2341
G1 X26.123 Y60.521 E18.2550
G1 X26.434 Y59.975 E18.2759
G1 X26.810 Y59.472 E18.2968
G1 X27.246 Y59.021 E18.3176
G1 X27.735 Y58.627 E18.3385
G1 X28.269 Y58.299 E18.3594
G92 E0
G1 E-2.0000 F2400
; inner perimeter
G1 X28.081 Y57.945 F4800
G1 E0.0000 F2400
G92 E0
G1 X28.699 Y57.665 E0.0225 F600
G1 X29.354 Y57.462 E0.0454
G1 X148.070 Y33.483 E4.0736
G1 X148.766 Y33.361 E4.0971
G1 X149.468 Y33.327 E4.1205
G1 X177.777 Y33.327 E5.0621
G1 X177.777 Y168.673 E9.5637
G1 X169.253 Y168.673 E9.8473
G1 X169.202 Y168.416 E9.8560
G1 X169.613 Y168.245 E9.8708
G1 X170.164 Y167.823 E9.8939
G1 X170.586 Y167.273 E9.9170
G1 X170.852 Y166.631 E9.9400
G1 X170.942 Y165.943 E9.9631
G1 X170.852 Y165.255 E9.9862
G1 X170.586 Y164.614 E10.0093
